img/main-page/cards/02.svg

<svg width="54" height="59" viewBox="0 0 54 59" fill="none" xmlns="http://www.w3.org/2000/svg">
<path d="M1.62509 0C1.14316 0 0.750089 0.393067 0.750089 0.875C0.750089 1.35693 1.14316 1.75 1.62509 1.75C2.10702 1.75 2.50009 1.35693 2.50009 0.875C2.50009 0.393067 2.10702 0 1.62509 0ZM17.3751 0C16.8932 0 16.5001 0.393067 16.5001 0.875C16.5001 1.35693 16.8932 1.75 17.3751 1.75C17.857 1.75 18.2501 1.35693 18.2501 0.875C18.2501 0.393067 17.857 0 17.3751 0ZM1.62509 3.5C1.14316 3.5 0.750089 3.89307 0.750089 4.375C0.750089 4.85693 1.14316 5.25 1.62509 5.25C2.10702 5.25 2.50009 4.85693 2.50009 4.375C2.50009 3.89307 2.10702 3.5 1.62509 3.5ZM17.3751 3.5C16.8932 3.5 16.5001 3.89307 16.5001 4.375C16.5001 4.85693 16.8932 5.25 17.3751 5.25C17.857 5.25 18.2501 4.85693 18.2501 4.375C18.2501 3.89307 17.857 3.5 17.3751 3.5ZM1.61142 6.98633C1.12948 6.99658 0.743254 7.39307 0.750089 7.875V14C0.750089 26.0723 10.5528 35.875 22.6251 35.875H22.9908C23.377 36.8423 24.1495 37.625 25.2501 37.625C26.3507 37.625 27.1231 36.8423 27.5094 35.875H33.1251C34.5846 35.875 35.7501 37.0405 35.7501 38.5V49.875H53.2501V40.25C53.2501 28.1777 43.4473 18.375 31.3751 18.375H27.5094C27.1231 17.4077 26.3507 16.625 25.2501 16.625C24.1495 16.625 23.377 17.4077 22.9908 18.375H20.8751C19.4156 18.375 18.2501 17.2095 18.2501 15.75V7.875C18.2535 7.56055 18.0894 7.2666 17.816 7.10596C17.5426 6.94873 17.2076 6.94873 16.9342 7.10596C16.6607 7.2666 16.4967 7.56055 16.5001 7.875V15.75C16.5001 18.1562 18.4688 20.125 20.8751 20.125H22.6251C22.6251 20.6069 23.0182 21 23.5001 21C23.982 21 24.3751 20.6069 24.3751 20.125V19.25C24.3751 18.7544 24.7545 18.375 25.2501 18.375C25.7457 18.375 26.1251 18.7544 26.1251 19.25V20.125C26.1251 20.6069 26.5182 21 27.0001 21C27.482 21 27.8751 20.6069 27.8751 20.125H31.3751C42.5006 20.125 51.5001 29.1245 51.5001 40.25V48.125H37.5001V38.5C37.5001 36.0938 35.5313 34.125 33.1251 34.125H27.8751C27.8751 33.6431 27.482 33.25 27.0001 33.25C26.5182 33.25 26.1251 33.6431 26.1251 34.125V35C26.1251 35.4956 25.7457 35.875 25.2501 35.875C24.7545 35.875 24.3751 35.4956 24.3751 35V34.125C24.3751 33.6431 23.982 33.25 23.5001 33.25C23.0182 33.25 22.6251 33.6431 22.6251 34.125C11.4996 34.125 2.50009 25.1255 2.50009 14V7.875C2.50351 7.63916 2.41122 7.41016 2.24374 7.24268C2.07626 7.0752 1.84726 6.98291 1.61142 6.98633ZM23.5001 22.75C23.0182 22.75 22.6251 23.1431 22.6251 23.625C22.6251 24.1069 23.0182 24.5 23.5001 24.5C23.982 24.5 24.3751 24.1069 24.3751 23.625C24.3751 23.1431 23.982 22.75 23.5001 22.75ZM27.0001 22.75C26.5182 22.75 26.1251 23.1431 26.1251 23.625C26.1251 24.1069 26.5182 24.5 27.0001 24.5C27.482 24.5 27.8751 24.1069 27.8751 23.625C27.8751 23.1431 27.482 22.75 27.0001 22.75ZM23.5001 26.25C23.0182 26.25 22.6251 26.6431 22.6251 27.125C22.6251 27.6069 23.0182 28 23.5001 28C23.982 28 24.3751 27.6069 24.3751 27.125C24.3751 26.6431 23.982 26.25 23.5001 26.25ZM27.0001 26.25C26.5182 26.25 26.1251 26.6431 26.1251 27.125C26.1251 27.6069 26.5182 28 27.0001 28C27.482 28 27.8751 27.6069 27.8751 27.125C27.8751 26.6431 27.482 26.25 27.0001 26.25ZM23.5001 29.75C23.0182 29.75 22.6251 30.1431 22.6251 30.625C22.6251 31.1069 23.0182 31.5 23.5001 31.5C23.982 31.5 24.3751 31.1069 24.3751 30.625C24.3751 30.1431 23.982 29.75 23.5001 29.75ZM27.0001 29.75C26.5182 29.75 26.1251 30.1431 26.1251 30.625C26.1251 31.1069 26.5182 31.5 27.0001 31.5C27.482 31.5 27.8751 31.1069 27.8751 30.625C27.8751 30.1431 27.482 29.75 27.0001 29.75ZM44.5001 52.5C44.5001 52.5 42.7501 55.9077 42.7501 56.875C42.7501 57.8423 43.5328 58.625 44.5001 58.625C45.4674 58.625 46.2501 57.8423 46.2501 56.875C46.2501 55.9077 44.5001 52.5 44.5001 52.5Z" fill="#E4B564"/>
</svg>

<svg width="54" height="59" fill="none" xmlns="http://www.w3.org/2000/svg"><path d="M1.625 0A.877.877 0 00.75.875c0 .482.393.875.875.875A.877.877 0 002.5.875.877.877 0 001.625 0zm15.75 0a.877.877 0 00-.875.875c0 .482.393.875.875.875a.877.877 0 00.875-.875.877.877 0 00-.875-.875zM1.625 3.5a.877.877 0 00-.875.875c0 .482.393.875.875.875a.877.877 0 00.875-.875.877.877 0 00-.875-.875zm15.75 0a.877.877 0 00-.875.875c0 .482.393.875.875.875a.877.877 0 00.875-.875.877.877 0 00-.875-.875zM1.611 6.986a.879.879 0 00-.86.889V14c0 12.072 9.802 21.875 21.874 21.875h.366c.386.967 1.159 1.75 2.26 1.75 1.1 0 1.872-.783 2.258-1.75h5.616A2.613 2.613 0 0135.75 38.5v11.375h17.5V40.25c0-12.072-9.803-21.875-21.875-21.875H27.51c-.386-.967-1.158-1.75-2.259-1.75-1.1 0-1.873.783-2.26 1.75h-2.115a2.613 2.613 0 01-2.625-2.625V7.875a.88.88 0 00-.434-.769.883.883 0 00-.882 0 .88.88 0 00-.434.769v7.875a4.388 4.388 0 004.375 4.375h1.75c0 .482.393.875.875.875a.877.877 0 00.875-.875v-.875a.86.86 0 01.875-.875.86.86 0 01.875.875v.875c0 .482.393.875.875.875a.877.877 0 00.875-.875h3.5c11.126 0 20.125 9 20.125 20.125v7.875h-14V38.5a4.388 4.388 0 00-4.375-4.375h-5.25A.877.877 0 0027 33.25a.877.877 0 00-.875.875V35a.86.86 0 01-.875.875.86.86 0 01-.875-.875v-.875a.877.877 0 00-.875-.875.877.877 0 00-.875.875C11.5 34.125 2.5 25.125 2.5 14V7.875a.878.878 0 00-.889-.889zm21.89 15.764a.877.877 0 00-.876.875c0 .482.393.875.875.875a.877.877 0 00.875-.875.877.877 0 00-.875-.875zm3.5 0a.877.877 0 00-.876.875c0 .482.393.875.875.875a.877.877 0 00.875-.875.877.877 0 00-.875-.875zm-3.5 3.5a.877.877 0 00-.876.875c0 .482.393.875.875.875a.877.877 0 00.875-.875.877.877 0 00-.875-.875zm3.5 0a.877.877 0 00-.876.875c0 .482.393.875.875.875a.877.877 0 00.875-.875.877.877 0 00-.875-.875zm-3.5 3.5a.877.877 0 00-.876.875c0 .482.393.875.875.875a.877.877 0 00.875-.875.877.877 0 00-.875-.875zm3.5 0a.877.877 0 00-.876.875c0 .482.393.875.875.875a.877.877 0 00.875-.875.877.877 0 00-.875-.875zM44.5 52.5s-1.75 3.408-1.75 4.375a1.749 1.749 0 103.5 0c0-.967-1.75-4.375-1.75-4.375z" fill="#E4B564"/></svg>
